X:10
T:Beare Island
Z: id:dc-reel-11
M:C
L:1/8
K:E Dorian
D|EB^GB A=GEc|dBcA Beec|d2fd AGFA|GEFD EDB,A,|!
B,EEF GFGA|B2GA Bdef|g2fg egfe|dBAF E3:|!
A|Bdef g2fe|dBAG FDD2|Bdef gfed|e2^df e3f|!
edBc d3c|BcdB AFDF|GBB2 AGFA|GEFD E3:|!

